src/catppuccin-latte-mauve-cursors/down-arrow_24.svg

<?xml version="1.0" encoding="UTF-8" standalone="no"?>
<svg
   id="svg5327"
   width="24"
   height="24"
   version="1.1"
   sodipodi:docname="down-arrow_24.svg"
   inkscape:version="1.1.2 (0a00cf5339, 2022-02-04)"
   xmlns:inkscape="http://www.inkscape.org/namespaces/inkscape"
   xmlns:sodipodi="http://sodipodi.sourceforge.net/DTD/sodipodi-0.dtd"
   xmlns="http://www.w3.org/2000/svg"
   xmlns:svg="http://www.w3.org/2000/svg">
  <sodipodi:namedview
     id="namedview11"
     pagecolor="#ffffff"
     bordercolor="#666666"
     borderopacity="1.0"
     inkscape:pageshadow="2"
     inkscape:pageopacity="0.0"
     inkscape:pagecheckerboard="0"
     showgrid="true"
     inkscape:zoom="24.48"
     inkscape:cx="15.972222"
     inkscape:cy="12.745098"
     inkscape:window-width="1896"
     inkscape:window-height="1020"
     inkscape:window-x="9"
     inkscape:window-y="45"
     inkscape:window-maximized="1"
     inkscape:current-layer="svg5327">
    <inkscape:grid
       type="xygrid"
       id="grid1180" />
  </sodipodi:namedview>
  <defs
     id="defs5329">
    <filter
       id="filter862"
       style="color-interpolation-filters:sRGB"
       width="1.152"
       height="1.099"
       x="-0.079999998"
       y="-0.050000001">
      <feGaussianBlur
         id="feGaussianBlur864"
         stdDeviation=".413" />
    </filter>
    <filter
       id="filter822"
       style="color-interpolation-filters:sRGB"
       width="1.1827693"
       height="1.1187981"
       x="-0.091384627"
       y="-0.059399035">
      <feGaussianBlur
         id="feGaussianBlur824"
         stdDeviation=".495" />
    </filter>
    <filter
       inkscape:collect="always"
       style="color-interpolation-filters:sRGB"
       id="filter1539"
       x="-0.029109284"
       y="-0.018837148"
       width="1.0582186"
       height="1.0376743">
      <feGaussianBlur
         inkscape:collect="always"
         stdDeviation="0.13342953"
         id="feGaussianBlur1541" />
    </filter>
  </defs>
  <path
     style="color:#000000;opacity:0.1;fill:#000000;fill-opacity:1;stroke-linecap:round;stroke-linejoin:round;-inkscape-stroke:none;filter:url(#filter1539)"
     d="m 11.500191,3.5000345 a 1.0001,1.0001 0 0 0 -1,1 V 12.259801 C 9.5372775,12.047259 8.6702155,11.725152 8.1837842,11.269566 a 1.0001,1.0001 0 0 0 -1.5410156,1.244141 l 4.4960944,7.5 a 1.0001,1.0001 0 0 0 1.714844,0.002 l 4.503906,-7.5 a 1.0001,1.0001 0 0 0 -1.542969,-1.244188 c -0.483449,0.455064 -1.350796,0.776086 -2.314453,0.988282 V 4.5000345 a 1.0001,1.0001 0 0 0 -1,-1 z M 9.9787061,14.189488 c 0.6574209,0.145436 1.3100579,0.311018 2.0175789,0.310547 0.707075,-4.74e-4 1.3625,-0.163741 2.021484,-0.308594 l -2.021484,3.365235 z"
     id="path1501" />
  <path
     style="color:#000000;fill:#EFF1F5;stroke-linecap:round;stroke-linejoin:round;-inkscape-stroke:none;fill-opacity:1"
     d="m 11,3 a 1.0001,1.0001 0 0 0 -1,1 v 7.759766 C 9.037087,11.547224 8.170025,11.225117 7.6835937,10.769531 a 1.0001,1.0001 0 0 0 -1.5410156,1.244141 l 4.4960939,7.5 a 1.0001,1.0001 0 0 0 1.714844,0.002 l 4.503906,-7.5 A 1.0001,1.0001 0 0 0 15.314453,10.771484 C 14.831004,11.226548 13.963657,11.54757 13,11.759766 V 4 A 1.0001,1.0001 0 0 0 12,3 Z M 9.4785156,13.689453 C 10.135936,13.834889 10.788573,14.000471 11.496094,14 c 0.707075,-4.74e-4 1.3625,-0.163741 2.021484,-0.308594 l -2.021484,3.365235 z"
     id="path1441" />
  <path
     id="path1184"
     style="fill:#8839EF;fill-opacity:1;stroke:none;stroke-width:0;stroke-linecap:round;stroke-linejoin:round;stroke-miterlimit:4;stroke-dasharray:none;stroke-dashoffset:0;stroke-opacity:1;paint-order:normal"
     d="M 11 4 L 11 12 L 12 12 L 12 4 L 11 4 z M 7 11.5 L 11.496094 19 L 16 11.5 C 15.002259 12.439158 13.29961 12.998792 11.496094 13 C 9.6925789 13.0012 7.9972058 12.433972 7 11.5 z " />
</svg>

<svg xmlns="http://www.w3.org/2000/svg" width="24" height="24">
    <defs>
        <filter id="a" width="1.058" height="1.038" x="-.029" y="-.019" style="color-interpolation-filters:sRGB">
            <feGaussianBlur stdDeviation=".133"/>
        </filter>
    </defs>
    <path d="M11.5 3.5a1 1 0 0 0-1 1v7.76c-.963-.213-1.83-.535-2.316-.99a1 1 0 0 0-1.541 1.244l4.496 7.5a1 1 0 0 0 1.715.002l4.504-7.5a1 1 0 0 0-1.543-1.244c-.484.455-1.351.776-2.315.988V4.5a1 1 0 0 0-1-1zM9.98 14.19c.657.145 1.31.31 2.017.31s1.363-.164 2.022-.309l-2.022 3.366z" style="color:#000;opacity:.1;fill:#000;fill-opacity:1;stroke-linecap:round;stroke-linejoin:round;-inkscape-stroke:none;filter:url(#a)"/>
    <path d="M11 3a1 1 0 0 0-1 1v7.76c-.963-.213-1.83-.535-2.316-.99a1 1 0 0 0-1.541 1.244l4.496 7.5a1 1 0 0 0 1.715.002l4.503-7.5a1 1 0 0 0-1.543-1.245c-.483.456-1.35.777-2.314.989V4a1 1 0 0 0-1-1ZM9.479 13.69c.657.145 1.31.31 2.017.31s1.363-.164 2.022-.309l-2.022 3.366z" style="color:#000;fill:#eff1f5;stroke-linecap:round;stroke-linejoin:round;-inkscape-stroke:none;fill-opacity:1"/>
    <path d="M11 4v8h1V4zm-4 7.5 4.496 7.5L16 11.5c-.998.94-2.7 1.499-4.504 1.5S7.997 12.434 7 11.5" style="fill:#8839ef;fill-opacity:1;stroke:none;stroke-width:0;stroke-linecap:round;stroke-linejoin:round;stroke-miterlimit:4;stroke-dasharray:none;stroke-dashoffset:0;stroke-opacity:1;paint-order:normal"/>
</svg>
